X:382
T:Rachenitsa
Z:Jack Campin, http://www.campin.me.uk/
F:Jack Campin's Nine-Note Tunebook
% last edit 03-02-2013
G:Bulgarian dance
M:7/16
L:1/16
Q:7/16=60 % increasing to 72
P:AABBBBB
K:EMin
P:A
E2B2  B2B|B2c2  B2A| A4   d2d|  dcBA  G2F:|
A2AG  A2B|G2GF  F2D| E4   d2d|  dcBA  G2F |
A2AG  A2B|G2GF  F2D| E4   E2E|  E2E2  E3 ||
P:B
K:EPhr
E2A2 ^G2A|B2A2 ^G2F|^G4   A2A |^G2F2  E3 :|
D2D2  E2F|A2A2 ^G2F| E4   A^GA| B2A^G A3  |
D2D2  E2F|A2A2 ^G2F| E3F ^G2F | F2E2  E3 |]

